X: 1
T: Les patins de Pauline
T: Pauline's Skates
C: Andr\'e Marchand
R: jig
Z: 2007 John Chambers <jc:trillian.mit.edu> from Pascal Gemme's blog
M: 6/8
L: 1/8
K: G
  D \
| GAB GED | GAB GED | FGF E2D | FDF E2D | GAB GED |
| GAB GED | FGF EFE | DEF G2 :: D | GAB GDB, | CDE DB,G, |
| ECA, B,A,A, | ECB, A,2D | GAB GDB, | CDE DB,G, | ECA, B,A,A, | DEF G2 :|
